X:42
T:Two Black Russians
C:Declan Corey
D:"Lia Luachra" by Lia Luachra
Z:Transcribed by Lionel Gueganton
R:waltz
L:1/8
M:3/4
K:Am
|: "D"d2 de f/e/d | "A"ea ^ga a/^c'/d' | "D"dA de f/e/d     | "A"e^c Aa ca | 
   "D"d2 de f/e/d | "A"ea ^ga _b=g     | "G"ad' ^c'2 "A"e'2 |1"D"d'/e'/f'/e'/ d'a f/g/a :|2"D"d'/e'/f'/e'/ d'a fd 
|: "D"f'g'/f'/ e'g' f'/e'/d' | "C"e'g'/f'/ e'd' c'a | "Bb"d'e'/d'/ c'_b ag | "A"ac'/_b/ ag fd
|  "Bb"_bc'/b/ ac' b/a/g     | "F"af da aa          | "Em"ag ga aa         | "F"af fa "Em"ed :|
"Part B Variation"
f'g'/f'/ e'g' f'a' | a'e' e'c' c'a | d'e'/d'/ c'_b ag | ac'/_b/ ag fd | 
_bc'/b/ ac' b/a/g  | af da aa      | ag ga aa         | af fa ed      |

